svg/archive_off.svg

<svg xmlns="http://www.w3.org/2000/svg" viewBox="0 0 24 24"><path d="m10.2 7-4-4H21v4zM20 8h-8.8l8.8 8.8zm0 11.35v-.01L8.66 8l-1-1-5.27-5.27L1.11 3 3 4.89V7h2.11l1 1H4v13h15.11l1.73 1.73 1.27-1.27z"/></svg>

<svg xmlns="http://www.w3.org/2000/svg" id="mdi-archive-off" viewBox="0 0 24 24"><path d="M10.2 7L6.2 3H21V7H10.2M20 8H11.2L20 16.8V8M20 19.35V19.34L8.66 8H8.66L7.66 7H7.66L2.39 1.73L1.11 3L3 4.89V7H5.11L6.11 8H4V21H19.11L20.84 22.73L22.11 21.46L20 19.35Z" /></svg>
